logos/cz.svg

<svg width="336" height="38" viewBox="0 0 336 38" fill="none"
    xmlns="http://www.w3.org/2000/svg">
    <g clip-path="url(#clip0_1749_821)">
        <mask id="mask0_1749_821" style="mask-type:luminance" maskUnits="userSpaceOnUse" x="0" y="0" width="336" height="38">
            <path d="M336 0H0V38H336V0Z" fill="white"/>
        </mask>
        <g mask="url(#mask0_1749_821)">
            <path d="M37.7452 10.4601C37.7452 18.9854 37.7195 27.3282 37.7668 35.6704C37.7758 37.3005 37.0085 37.6859 35.5607 37.6799C27.7735 37.6464 19.9864 37.6464 12.1993 37.6799C10.7006 37.6865 10.0375 37.179 10.0471 35.6028C10.0933 27.7501 10.0219 19.8963 10.143 12.0454C10.1544 11.3219 11.2221 10.0005 11.8144 9.99276C20.0965 9.88384 28.381 9.95207 36.6643 9.99815C36.9353 9.99815 37.2039 10.222 37.7434 10.4607M31.5686 15.9963C26.8379 15.9963 22.2793 15.94 17.7261 16.0675C17.3521 16.169 17.0103 16.3644 16.7335 16.6353C16.4566 16.9061 16.2539 17.2432 16.1446 17.6144C16.0109 21.7813 16.0247 25.9554 16.1386 30.1217C16.2337 30.4559 16.413 30.7602 16.6593 31.0056C16.9056 31.2511 17.2107 31.4295 17.5457 31.5238C22.196 31.6328 26.8493 31.5879 31.5686 31.5879V15.9963Z" fill="white"/>
            <path d="M90.4701 16.8214H79.3086V10.4636H99.8212C100.166 13.7837 100.613 16.8794 97.7133 19.7058C94.4514 22.8847 91.6853 26.5687 88.3203 30.4777H100.382V36.8947H78.8146C78.2319 33.5494 78.1186 30.4914 80.9411 27.6926C84.1688 24.4909 86.9679 20.8608 90.4701 16.8214Z" fill="white"/>
            <path d="M71.1345 28.1343L75.0522 32.4077C69.7346 39.0832 59.4915 39.7325 53.3419 33.9881C46.8463 27.92 47.0009 19.0303 53.7082 13.0812C59.8087 7.66779 69.9474 8.49782 74.8651 14.9609L70.8209 19.1775C64.9932 15.2781 60.7145 15.1572 57.6834 18.7191C56.506 20.2153 55.8969 22.079 55.9637 23.9804C56.0305 25.8818 56.769 27.6984 58.0485 29.1085C61.1372 32.3017 65.9434 31.9852 71.1345 28.1331" fill="white"/>
            <path d="M288.372 10.1394C289.364 10.8575 290.587 11.3961 291.31 12.3183C296.161 18.5019 300.906 24.7657 306.391 30.9368V28.2738C306.391 23.1021 306.46 17.9292 306.36 12.7594C306.319 10.6235 307.182 10.1861 309.15 10.7205V38.0007C307.496 36.8003 306.18 36.212 305.392 35.212C301.203 29.8949 297.152 24.4707 293.042 19.092C292.405 18.2584 291.71 17.4678 290.478 15.9735V36.9612H287.739V10.9407L288.37 10.1394" fill="white"/>
            <path d="M319.753 13.1567V21.8788H331.631C332.351 23.7747 332.103 24.6502 330.157 24.6077C326.778 24.5347 323.397 24.5874 319.802 24.5874V34.4861C324.305 34.4861 328.67 34.4167 333.029 34.5459C333.853 34.5704 334.652 35.3885 335.462 35.8403C334.648 36.2688 333.844 37.051 333.019 37.0689C327.744 37.1814 322.468 37.1288 316.99 37.1288V10.4984C322.677 10.4984 328.228 10.4386 333.773 10.5852C334.344 10.6002 334.884 11.8216 336 13.1549L319.753 13.1567Z" fill="white"/>
            <path d="M254.848 17.0938C251.91 13.9335 248.364 12.1807 243.927 12.9897C241.701 13.3852 239.656 14.4712 238.083 16.0935C236.51 17.7158 235.49 19.7917 235.167 22.0261C234.813 24.1989 235.106 26.4278 236.01 28.4358C236.914 30.4437 238.389 32.1423 240.252 33.3204C244.01 35.6142 249.639 35.5011 252.817 32.4155C254.097 31.1726 254.169 28.6969 254.859 26.5718C252.145 26.1822 250.236 25.9476 248.361 25.5545C248.228 25.5263 248.343 24.3247 248.343 23.5587H256.741C258.376 30.9063 256.571 34.6728 250.495 36.7003C243.638 38.9893 236.194 35.8841 233.365 29.555C232.085 26.6636 231.831 23.4226 232.647 20.368C233.462 17.3134 235.297 14.628 237.849 12.7558C240.424 10.9096 243.559 10.0084 246.724 10.2047C249.888 10.401 252.887 11.6827 255.214 13.8329C256.6 15.0896 257.116 16.1375 254.848 17.0956" fill="white"/>
            <path d="M266.781 24.6226V34.4872C271.266 34.4872 275.708 34.5321 280.147 34.465C281.965 34.4381 282.83 34.9438 282.062 36.9934H263.96V10.5049C269.526 10.5049 275.176 10.4529 280.822 10.5983C281.302 10.6102 281.751 11.94 282.578 13.2218H266.833V21.95C270.193 21.95 273.454 21.9117 276.714 21.9637C278.791 21.9973 278.791 22.0577 278.462 24.6226H266.781Z" fill="white"/>
            <path d="M142.991 13.2451V21.7884H155.038V24.6118H143.096V34.486C147.546 34.486 151.993 34.5225 156.439 34.468C158.154 34.4471 159.257 34.7672 158.468 36.9683H140.2V10.4834H152.947C154.046 10.4834 155.199 10.2793 156.227 10.5492C157.096 10.7778 157.819 11.5564 158.606 12.092L158.126 13.2451H142.991Z" fill="white"/>
            <path d="M0.0533956 23.6088C0.0533956 19.8387 0.160107 16.0637 0.0162265 12.2984C-0.0766962 9.87833 1.31594 9.83225 3.06469 9.86875C4.71092 9.90286 6.23485 9.68204 6.20068 12.1943C6.09637 19.8331 6.09836 27.4731 6.20667 35.1143C6.24624 37.6577 4.87099 37.6457 2.99515 37.7175C0.861523 37.7995 -0.0958802 37.2525 0.0078335 34.9186C0.175094 31.1557 0.0527961 27.379 0.0533956 23.6088Z" fill="white"/>
            <path d="M134.918 32.1762C128.829 38.7278 120.078 39.206 114.355 33.4886C108.749 27.8884 109.043 19.0699 115.02 13.5721C120.662 8.38243 129.3 9.17655 134.689 15.4553C133.937 17.1698 133.13 17.2213 131.676 15.9203C126.901 11.6463 120.626 11.7558 116.372 16.0298C114.376 18.0846 113.241 20.822 113.198 23.6837C113.155 26.5453 114.207 29.3156 116.14 31.4293C120.168 35.7417 126.745 36.0151 131.553 32.0697C133.383 30.5682 133.383 30.5682 134.918 32.1762Z" fill="white"/>
            <path d="M10.0657 0.322501C10.9937 0.22735 11.836 0.0681662 12.6789 0.0657725C20.1433 0.0460242 27.6101 0.143569 35.0709 -5.53178e-05C37.4167 -0.0449379 37.9329 0.820997 37.8802 2.94125C37.8292 4.99388 37.6715 6.21648 35.0121 6.14407C27.9506 5.95257 20.8759 5.93163 13.8162 6.14946C10.8451 6.24102 9.47819 5.5211 10.0495 2.41403C10.1091 1.71731 10.1141 1.01701 10.0645 0.319509" fill="white"/>
            <path d="M179.905 34.3802C180.629 36.2892 180.421 37.1718 178.463 37.1461C173.692 37.0827 168.92 37.1258 163.677 37.1258V32.3072C163.677 25.8602 163.718 19.4133 163.651 12.9676C163.633 11.116 163.992 10.0017 166.469 10.7569V34.3802H179.905Z" fill="white"/>
            <path d="M184.781 10.7336C187.059 9.99396 187.419 11.1364 187.402 12.9712C187.345 18.9376 187.381 24.9046 187.381 30.8715V34.4861C191.355 34.4861 195.017 34.4035 198.669 34.5507C199.467 34.583 200.232 35.4364 201.012 35.9116C200.277 36.3167 199.551 37.0552 198.807 37.0731C194.22 37.1814 189.63 37.1276 184.781 37.1276V10.7336Z" fill="white"/>
            <path d="M217.58 24.0572L224.031 29.2462L221.981 31.5166L216.859 25.4754C214.282 27.6298 212.243 29.3766 210.113 31.0146C209.965 31.1289 209.18 30.4233 208.086 29.698L214.928 24.3288L208.657 18.9525C210.441 16.636 210.471 16.6049 212.69 18.749C213.821 19.8406 214.821 21.0662 216.015 22.3803L222.317 16.4451L224.213 18.3325L217.58 24.0572Z" fill="white"/>
        </g>
    </g>
    <defs>
        <clipPath id="clip0_1749_821">
            <rect width="336" height="38" fill="white"/>
        </clipPath>
    </defs>
</svg>

<svg xmlns="http://www.w3.org/2000/svg" width="336" height="38" fill="none" viewBox="0 0 336 38">
    <g clip-path="url(#a)">
        <mask id="b" width="336" height="38" x="0" y="0" maskUnits="userSpaceOnUse" style="mask-type:luminance">
            <path fill="currentColor" d="M336 0H0v38h336z"/>
        </mask>
        <g fill="currentColor" mask="url(#b)">
            <path d="M37.745 10.46c0 8.525-.026 16.868.022 25.21.009 1.63-.759 2.016-2.206 2.01q-11.682-.051-23.362 0c-1.498.007-2.161-.501-2.152-2.077.046-7.853-.025-15.707.096-23.558.011-.723 1.08-2.044 1.671-2.052 8.282-.11 16.567-.04 24.85.005.271 0 .54.224 1.08.463m-6.175 5.535c-4.731 0-9.29-.056-13.843.071a2.27 2.27 0 0 0-1.581 1.547c-.134 4.167-.12 8.341-.006 12.508a2.03 2.03 0 0 0 1.407 1.402c4.65.109 9.303.064 14.023.064zM90.47 16.821H79.31v-6.357H99.82c.345 3.32.792 6.415-2.108 9.242-3.262 3.179-6.028 6.863-9.393 10.772h12.062v6.417H78.815c-.583-3.346-.696-6.404 2.126-9.202 3.228-3.202 6.027-6.832 9.53-10.872M71.135 28.134l3.917 4.274c-5.317 6.675-15.56 7.325-21.71 1.58-6.496-6.068-6.341-14.958.366-20.907 6.1-5.413 16.24-4.583 21.157 1.88l-4.044 4.216c-5.828-3.899-10.106-4.02-13.138-.458a8.05 8.05 0 0 0 .365 10.39c3.09 3.193 7.895 2.876 13.087-.976M288.372 10.14c.992.717 2.215 1.256 2.938 2.178 4.851 6.184 9.596 12.448 15.081 18.619v-2.663c0-5.172.069-10.345-.031-15.515-.041-2.136.822-2.573 2.79-2.039V38c-1.654-1.2-2.97-1.788-3.758-2.788-4.189-5.317-8.24-10.741-12.35-16.12-.637-.834-1.332-1.624-2.564-3.118V36.96h-2.739v-26.02l.631-.802M319.753 13.157v8.722h11.878c.72 1.896.472 2.771-1.474 2.729-3.379-.073-6.76-.02-10.355-.02v9.898c4.503 0 8.868-.07 13.227.06.824.024 1.623.843 2.433 1.294-.814.429-1.618 1.211-2.443 1.229-5.275.112-10.551.06-16.029.06v-26.63c5.687 0 11.238-.06 16.783.086.571.015 1.111 1.237 2.227 2.57zM254.848 17.094c-2.938-3.16-6.484-4.913-10.921-4.104a10.76 10.76 0 0 0-5.844 3.103 10.73 10.73 0 0 0-2.916 5.933 11.2 11.2 0 0 0 .843 6.41 11.24 11.24 0 0 0 4.242 4.884c3.758 2.294 9.387 2.181 12.565-.904 1.28-1.243 1.352-3.72 2.042-5.844-2.714-.39-4.623-.624-6.498-1.017-.133-.029-.018-1.23-.018-1.996h8.398c1.635 7.347-.17 11.114-6.246 13.141-6.857 2.29-14.301-.816-17.13-7.145a13.86 13.86 0 0 1-.718-9.187 13.88 13.88 0 0 1 5.202-7.612 13.77 13.77 0 0 1 17.365 1.077c1.386 1.257 1.902 2.304-.366 3.263M266.781 24.623v9.864c4.485 0 8.927.045 13.366-.022 1.818-.027 2.683.479 1.915 2.528H263.96V10.505c5.566 0 11.216-.052 16.862.093.48.012.929 1.342 1.756 2.624h-15.745v8.728c3.36 0 6.621-.038 9.881.014 2.077.033 2.077.094 1.748 2.659zM142.991 13.245v8.543h12.047v2.824h-11.942v9.874c4.45 0 8.897.037 13.343-.018 1.715-.02 2.818.3 2.029 2.5H140.2V10.483h12.747c1.099 0 2.252-.204 3.28.066.869.229 1.592 1.007 2.379 1.543l-.48 1.153zM.053 23.609c0-3.77.107-7.545-.037-11.31-.093-2.42 1.3-2.467 3.049-2.43 1.646.034 3.17-.187 3.136 2.325a824 824 0 0 0 .006 22.92c.04 2.544-1.336 2.532-3.212 2.604-2.133.081-3.09-.466-2.987-2.8.167-3.762.045-7.539.045-11.31M134.918 32.176c-6.089 6.552-14.84 7.03-20.563 1.313-5.606-5.6-5.312-14.42.665-19.917 5.642-5.19 14.28-4.395 19.669 1.883-.752 1.715-1.559 1.766-3.013.465-4.775-4.274-11.05-4.164-15.304.11a11.226 11.226 0 0 0-.232 15.4c4.028 4.312 10.605 4.585 15.413.64 1.83-1.502 1.83-1.502 3.365.106M10.066.323c.928-.096 1.77-.255 2.613-.257C20.143.046 27.61.144 35.07 0c2.346-.045 2.862.821 2.81 2.941-.052 2.053-.21 3.275-2.869 3.203-7.061-.191-14.136-.212-21.196.005-2.97.092-4.338-.628-3.767-3.735q.09-1.047.016-2.094M179.905 34.38c.724 1.91.516 2.792-1.442 2.766-4.771-.063-9.543-.02-14.786-.02v-4.819c0-6.447.041-12.894-.026-19.34-.018-1.851.341-2.965 2.818-2.21V34.38zM184.781 10.734c2.278-.74 2.638.402 2.621 2.237-.057 5.967-.021 11.934-.021 17.9v3.615c3.974 0 7.636-.082 11.288.065.798.032 1.563.885 2.343 1.36-.735.406-1.461 1.144-2.205 1.162-4.587.108-9.177.055-14.026.055zM217.58 24.057l6.451 5.19-2.05 2.27-5.122-6.042c-2.577 2.155-4.616 3.902-6.746 5.54-.148.114-.933-.592-2.027-1.317l6.842-5.37-6.271-5.375c1.784-2.317 1.814-2.348 4.033-.204 1.131 1.092 2.131 2.317 3.325 3.631l6.302-5.935 1.896 1.887z"/>
        </g>
    </g>
    <defs>
        <clipPath id="a">
            <path fill="currentColor" d="M0 0h336v38H0z"/>
        </clipPath>
    </defs>
</svg>
